!!!COM: Joplin, Scott
!!!CDT: 1868/11/24/-1917/04/01/
!!!OTL: Pleasant Moments
!!!ONB: Ragtime Waltz
!!!ODT: 1909///
!!!PPR: Seminary Music Co.
!!!PPP: 112 W. 38th St., N.Y.
!!!PDT: 1909///
!!!ENC: Craig Stuart Sapp
!!!END: 2004/07/05/
!!!YEC: Copyright 2004 by Craig Stuart Sapp
!!!YEN: United States of America
**kern	**kern	**dynam
*staff2	*staff1	*staff1
*Ipiano	*Ipiano	*Ipiano
*>[A,B,B1,B,B2,C,D,D1,D,D2,E]	*>[A,B,B1,B,B2,C,D,D1,D,D2,E]	*>[A,B,B1,B,B2,C,D,D1,D,D2,E]
*>norep[A,B,B2,C,D,D2,E]	*>norep[A,B,B2,C,D,D2,E]	*>norep[A,B,B2,C,D,D2,E]
*>A	*>A	*>A
=1-	=1-	=1-
*clefF4	*clefG2	*clefG2
*k[f#]	*k[f#]	*k[f#]
*G:	*G:	*G:
*M3/4	*M3/4	*M3/4
*MM112	*MM112	*MM112
*^	*	*
8BB/	8BBB\	2.r	.
4D/	4DD\	.	.
8D/	8DD\	.	.
(8G/L	8GG\L	.	.
8E/J)	&(8EE\J&)	.	.
*v	*v	*	*
=2	=2	=2
8BB\	8B/	mf
4D\	4d/	.
8D\	8d/	.
(8G\L	8g/L	.
&(8E\J&))	8e/J	.
=3	=3	=3
8B\	8b\	.
4d\	4dd\	.
8d\	8dd\	.
(8g\L	(8gg\L	.
8e\J)	8ee\J)	.
=4	=4	=4
*^	*	*
4d\	4r	4dd/	.
4E#/ 4G#/ (4B/	2D\	2d/ 2dd/	.
4F#/ &(4A/&) 4c/)	.	.	.
=5	=5	=5	=5
4r	(2GG\	(8g/ 8b/	mf
.	.	4b\) 4dd\	.
4D/ 4G/ 4B/	.	.	.
.	.	8b\ 8dd\	.
*	*	*^	*
4E/ 4G/ 4A#/	4C#\)	(8gg/L	4a#\	.
.	.	8ee/J)	.	.
*	*	*v	*v	*
=6	=6	=6	=6
4r	2.D\	8b\ 8ee\L	.
.	.	8b\ 8dd\	.
4G/ 4B/	.	8b\ 8dd\	.
.	.	[8a\ [8cc\J	.
4F#/ 4c/	.	8a\] 8cc\L]	.
.	.	8f#\ 8a#\J	.
=7	=7	=7	=7
4r	(2GG\	8g/ (8b/	.
.	.	&(4b\&) 4dd\)	.
4D/ 4G/ 4B/	.	.	.
.	.	8b\ 8dd\	.
*	*	*^	*
4E/ 4G/ 4A#/	4C#\)	(8gg/L	4a#\	.
.	.	8ee/J)	.	.
*	*	*v	*v	*
=8	=8	=8	=8
4r	2.D\	8b\ 8ee\L	.
.	.	8b\ 8dd\	.
4G/ 4B/	.	8b\ 8dd\	.
.	.	[8a\ [8cc\J	.
4F#/ 4c/	.	8a\] 8cc\L]	.
.	.	8d\J	.
*v	*v	*	*
=9	=9	=9
4DD/	8g#/ (8b/	.
.	4a/ 4cc/	.
4D\ 4F#\ 4c\	.	.
.	8b\ 8dd\	.
4D\ 4F#\ 4c\	4cc\ 4ee\)	.
=10	=10	=10
4GG/	8a#\ (8cc#\	.
.	4b\ 4dd\	.
4D\ 4G\ 4B\	.	.
.	8cc#\ 8aa#\	.
4G\ 4B\ 4d\	4dd\ 4bb\)	.
=11	=11	=11
4FF#/	8dd\ 8bb\	.
.	4ff#\ 4bb\ 4ddd\	.
4F#\ 4B\ 4d\	.	.
.	[8ff#\ [8aa#\ [8ddd\	.
4F#\ 4A#\ 4e\	8ff#\] 8aa#\] 8ddd\L]	.
.	8ee\ 8aa#\ 8ccc#\J	.
=12	=12	=12
*^	*	*
(4B/	2BB\ 2F#\	4dd\ (4bb\	.
4d/)	.	&(4f#/&) 4b/)	.
4D\ 4F#\ 4c\	(8a/L	4f#\	.
.	8a#/J)	.	.
=13	=13	=13	=13
4r	(2GG\	8g/ (8b/	.
.	.	4b\ 4dd\)	.
4D/ 4G/ 4B/	.	.	.
.	.	8b\ 8dd\	.
*	*	*^	*
4E/ 4G/ 4A#/	4C#\)	8gg/L	4a#\	.
.	.	8ee/J	.	.
*	*	*v	*v	*
=14	=14	=14	=14
4r	2.D\	8b\ 8ee\L	.
.	.	8b\ 8dd\	.
4G/ 4B/	.	8b\ 8dd\	.
.	.	[8a\ [8cc\J	.
4F#/ 4c/	.	8a\] 8cc\L]	.
.	.	8f#\ 8a#\J	.
=15	=15	=15	=15
4r	2.GG\	8g/ (8b/	.
.	.	4g/ 4b/ 4dd/)	.
4D/ 4G/ 4B/	.	.	.
.	.	8g/ 8b/ 8dd/	.
4D#/ 4G/ 4B/	.	4g/ 4b/ 4dd#/	.
*v	*v	*	*
=16	=16	=16
(8C/	2.g\ 2.cc\ 2.ee\	.
4E\	.	.
8G\	.	.
4c\)	.	.
=17	=17	=17
*	*^	*
4C/	8ee/ (8gg/	2g\	f
.	4dd/ 4ff#/	.	.
4E\ 4G\ 4c\	.	.	.
.	8cc/ 8ee/	.	.
4C#/	4ee/)	4g\ 4a#\	.
=18	=18	=18	=18
*^	*	*	*
4r	2.D\	8gg/	2g\ 2b\	.
.	.	4ff#/	.	.
4G/ 4B/	.	.	.	.
.	.	8ee/	.	.
4G/ 4B/	.	8ee/L	4g\ 4b\	.
.	.	8dd/J	.	.
*	*	*v	*v	*
=19	=19	=19	=19
4r	2.DD\	8e/ 8f#/ 8cc/	.
.	.	4d/ 4f#/ 4b/	.
4D/	.	.	.
.	.	[8c/ [8f#/ [8a/	.
*	*	*^	*
4D/	.	8a/L]	4c'\] 4f#'\]	.
.	.	8b/J	.	.
*v	*v	*	*	*
*	*v	*v	*
=20	=20	=20
2GG/ 2D/	2B/ 2g/	.
4r	(8a/L	.
.	8b/J)	.
=21	=21	=21
*>B	*>B	*>B
*k[f#c#]	*k[f#c#]	*k[f#c#]
*	*^	*
4EE/	(8cc#/L	4.gn\	mf
.	8b#/	.	.
4G\ 4A\ 4c#\	8cc#/	.	.
.	[8bn/J)	[8g\	.
*	*v	*v	*
4G\ 4A\ 4c#\	4g/_ 4b/_	.
=22	=22	=22
4AA/	8g/] 8b/]	.
*	*^	*
.	(4cc#/	[4.g\	.
4G\ 4A\ 4c#\	.	.	.
.	8b/	.	.
4G\ 4A\ 4c#\	8dd/L	4g\]	.
.	8cc#/J)	.	.
=23	=23	=23	=23
4D\	(8cc#/L	4.f#\	.
.	8b#/	.	.
4F#\ 4A\ 4d\	8cc#/	.	.
.	[8bn/J)	[8f#\	.
*	*v	*v	*
4F#\ 4A\ 4d\	4f#/_ 4b/_	.
=24	=24	=24
4AA/	8f#/] 8b/]	.
*	*^	*
.	(4dd/	[4.f#\	.
4F#\ 4A\ 4d\	.	.	.
.	8cc#/	.	.
4F#\ 4A\ 4d\	8ee/L	4f#\]	.
.	8dd/J)	.	.
*	*v	*v	*
=25	=25	=25
4GG/	8b\ (8dd\	.
.	4g/ 4b/	.
4G\ 4B\ 4d\	.	.
.	8b\ 8gg\	.
*	*^	*
4G\ 4B-\ 4d\	8ff#/L	4b-\	.
.	8ee/J)	.	.
=26	=26	=26	=26
4FF#/	(8ee/	2a\	.
.	4dd/	.	.
4F#\ 4A\ 4d\	.	.	.
.	8ff#/)	.	.
4FFn/ 4Fn/	4a\ 4dd\ 4aa\	4r	.
=27	=27	=27	=27
4EE/ 4E/	(8aa/	2b\ 2dd\	.
.	4gg#/	.	.
4E\ 4G#\ 4d\	.	.	.
.	8ff#/	.	.
4E\ 4G#\ 4d\	8dd/L	8b\L	.
.	8b/J)	8g#\J	.
*	*v	*v	*
=28	=28	=28
*^	*	*
2c#/	4A\	2a/	.
.	4AA\	.	.
4r	4r	(8a/L	mf
.	.	8b/J)	.
*v	*v	*	*
=29	=29	=29
*	*^	*
4EE/	(8cc#/L	4.g\	.
.	8b#/	.	.
4G\ 4A\ 4c#\	8cc#/	.	.
.	[8bn/J)	[8g\	.
*	*v	*v	*
4G\ 4A\ 4c#\	4g/_ 4b/_	.
=30	=30	=30
4AA/	8g/] 8b/]	.
*	*^	*
.	(4cc#/	4.g\	.
4G\ 4A\ 4c#\	.	.	.
.	8b/	.	.
4G\ 4A\ 4c#\	8dd/L	4g\	.
.	8cc#/J)	.	.
=31	=31	=31	=31
4D\	(8cc#/L	4.f#\	.
.	8b#/	.	.
4F#\ 4A\ 4d\	8cc#/	.	.
.	[8bn/J	[8f#\	.
*	*v	*v	*
4F#\ 4A\ 4d\	4f#/_ 4b/_)	.
=32	=32	=32
4D\	8f#/] (8b/]	.
*	*^	*
.	4dd/	[4.f#\	.
4F#\ 4A\ 4d\	.	.	.
.	8cc#/	.	.
4F#\ 4A\ 4d\	8ee/L	4f#\]	.
.	8dd/J)	.	.
=33	=33	=33	=33
4BB/	4dd\	4ff#\ 4ddd\	f
(8D\L	4ff#/	8b\ 8dd\L	.
8D#\J)	.	8a\ 8ccn\J	.
4E\	[4g\	[4b\ [4gg\	.
*	*v	*v	*
=34	=34	=34
4AA/	8g\] 8b\] 8gg\]	.
.	4b\ 4cc#\ (4gg\	.
4G\ 4A\ 4c#\	.	.
.	8a\ 8cc#\ 8ff#\	.
4AA\ 4A\	4g\ 4cc#\ 4ee\)	.
=35	=35	=35
*>B1	*>B1	*>B1
*^	*	*
[2.A/	(4D\	[2.f#/ [2.dd/	.
.	8BB\L	.	.
.	[8AA\J	.	.
.	8AA\L]	.	.
.	8FF#\J	.	.
=36	=36	=36	=36
4A/]	4DD\)	4f#/] 4dd/]	.
*v	*v	*	*
(4FF#/	4a/	.
4FFn/)	&(4g#/&) 4b/	.
=37:|!	=37:|!	=37:|!
*>B2	*>B2	*>B2
*^	*	*
[2.A/	(4D\	[2.f#/ [2.dd/	.
.	8BB\L	.	.
.	[8AA\J	.	.
.	8AA\L]	.	.
.	8FF#\J	.	.
=38	=38	=38	=38
4A/]	4DD\)	4f#/] 4dd/]	.
2D\ 2F#\ 2cn\	4a/	2f#\	.
.	&(4a#/&)	.	.
*	*v	*v	*
=39	=39	=39
*>C	*>C	*>C
*k[f#]	*k[f#]	*k[f#]
*^	*	*
4r	(2GG\	8g/ (8b/	mf
.	.	&(4b\&) 4dd\)	.
4D/ 4G/ 4B/	.	.	.
.	.	8b\ 8dd\	.
*	*	*^	*
4E/ 4G/ 4A#/	4C#\)	(8gg/L	4a#\	.
.	.	8ee/J)	.	.
*	*	*v	*v	*
=40	=40	=40	=40
4r	2.D\	8b\ 8ee\L	.
.	.	8b\ 8dd\	.
4G/ 4B/	.	8b\ 8dd\	.
.	.	[8a\ [8cc\J	.
4F#/ 4c/	.	8a\] 8cc\L]	.
.	.	8f#\ 8a#\J	.
=41	=41	=41	=41
4r	(2GG\	8g/ (8b/	.
.	.	4b\ 4dd\)	.
4D/ 4G/ 4B/	.	.	.
.	.	8b\ 8dd\	.
*	*	*^	*
4E/ 4G/ 4A#/	4C#\)	(8gg/L	4a#\	.
.	.	8ee/J)	.	.
*	*	*v	*v	*
=42	=42	=42	=42
4r	2.D\	8b\ 8ee\L	.
.	.	8b\ 8dd\	.
4G/ 4B/	.	8b\ 8dd\	.
.	.	[8a\ [8cc\J	.
4F#/ 4c/	.	8a\] 8cc\L]	.
.	.	8d\J	.
*v	*v	*	*
=43	=43	=43
4DD/	8g#/ (8b/	.
.	4a\ 4cc\	.
4D\ 4F#\ 4c\	.	.
.	8b\ 8dd\	.
4D\ 4F#\ 4c\	4cc\ 4ee\)	.
=44	=44	=44
4GG/	8a#\ (8cc#\	.
.	4b\ 4dd\	.
4D\ 4G\ 4B\	.	.
.	8cc#\ 8aa#\	.
4G\ 4B\ 4d\	4dd\ 4bb\)	.
=45	=45	=45
4FF#/	8dd\ 8bb\	.
.	4ff#\ 4bb\ 4ddd\	.
4F#\ 4B\ 4d\	.	.
.	[8ff#\ [8aa#\ [8ddd\	.
4F#\ 4A#\ 4e\	8ff#\] 8aa#\] 8ddd\L]	.
.	8ee\ 8aa#\ 8ccc#\J	.
=46	=46	=46
*^	*	*
(4B/	2BB\ 2F#\	4dd\ (4bb\	.
4d/)	.	&(4f#/&) 4b/)	.
4D\ 4F#\ 4c\	(8a/L	4f#\	.
.	8a#/J)	.	.
=47	=47	=47	=47
4r	(2GG\	8g/ (8b/	.
.	.	4b\ 4dd\)	.
4D/ 4G/ 4B/	.	.	.
.	.	8b\ 8dd\	.
*	*	*^	*
4E/ 4G/ 4A#/	4C#\)	(8gg/L	4a#\	.
.	.	8ee/J)	.	.
*	*	*v	*v	*
=48	=48	=48	=48
4r	2.D\	8b\ 8ee\L	.
.	.	8b\ 8dd\	.
4G/ 4B/	.	8b\ 8dd\	.
.	.	[8a\ [8cc\J	.
4F#/ 4c/	.	8a\] 8cc\L]	.
.	.	8f#\ 8a#\J	.
=49	=49	=49	=49
4r	2.GG\	8g/ (8b/	.
.	.	4g/ 4b/ 4dd/)	.
4D/ 4G/ 4B/	.	.	.
.	.	8g/ 8b/ 8dd/	.
4D#/ 4G/ 4B/	.	4g/ 4b/ 4dd#/	.
*v	*v	*	*
=50	=50	=50
(8C/	2.g\ 2.cc\ 2.ee\	.
4E\	.	.
8G\	.	.
4c\)	.	.
=51	=51	=51
*>B1	*>B1	*>B1
*	*^	*
4C/	8ee/ 8gg/	2g\	f
.	4dd/ 4ff#/	.	.
4E\ 4G\ 4c\	.	.	.
.	8cc/ 8ee/	.	.
4C#/	4ee/	4g\ 4a#\	.
=52	=52	=52	=52
*^	*	*	*
4r	2.D\	(8gg/	2g\ 2b\	.
.	.	4ff#/	.	.
4G/ 4B/	.	.	.	.
.	.	8ee/)	.	.
4G/ 4B/	.	(8ee/L	4g\ 4b\	.
.	.	8dd/J)	.	.
*	*	*v	*v	*
=53	=53	=53	=53
4r	2.DD\	8e/ 8f#/ 8cc/	.
.	.	4d/ 4f#/ 4b/	.
4D/	.	.	.
.	.	8c/ 8f#/ [8a/	.
*	*	*^	*
4D/	.	(8a/L]	4c\ 4f#\	.
.	.	8b/J)	.	.
*v	*v	*	*	*
*	*v	*v	*
=54	=54	=54
4GG/ 4D/	4B/ 4g/	.
4GGG/ 4GG/	4g\ 4b\ 4dd\ 4gg\	.
4r	4r	.
=55	=55	=55
*>D	*>D	*>D
*k[f#]	*k[f#]	*k[f#]
(8C/	[2.c/ [2.e/	p
4G\	.	.
8A\	.	.
4G\)	.	.
=56	=56	=56
(4c\	8c/] (8e/L]	.
.	8d#/ 8f#/	.
4G\	8e/ 8g/	.
.	[8e/ [8g/ [8cc/J)	.
4C/)	4e/] 4g/] 4cc/]	.
=57	=57	=57
8AA/	(2.e/ [2.a/ [2.cc/	.
4E\	.	.
8F\	.	.
&(4E\&)	.	.
=58	=58	=58
(4A\	8e/ 8a/] 8cc/L]	.
.	8cc/) 8dd#/	.
4E\	8cc/ 8ee/	.
.	[8cc/ [8ee/ &([8aa/J&)	.
4AA/)	4cc\] 4ee\] 4aa\]	.
=59	=59	=59
*	*^	*
4GG/	(8bb/	2dd\ 2ff\	.
.	4aa/	.	.
4G\ 4B\ 4f\	.	.	.
.	8gg/)	.	.
4G\ 4B\ 4f\	(8ff/L	4dd\	.
.	8bb/J)	.	.
=60	=60	=60	=60
4CC/ 4C/	(8bb/	2cc\ 2ee\	.
.	4aa/)	.	.
4G\ 4c\ 4e\	.	.	.
.	8gg/	.	.
4AA\ 4A\	(8ff/L	4g\ 4cc#\	.
.	8ee/J)	.	.
=61	=61	=61	=61
4D\	(8ee/	2f#\ 2ccn\	.
.	4dd/	.	.
4A\ 4cn\	.	.	.
.	8cc#/)	.	.
4D\ 4c\	4dd/	4f#\	.
=62	=62	=62	=62
*^	*	*	*
(4c/	2G\	(4a/	2fn\	.
2B/)	.	4g/	.	.
.	&(4GG\&)	4f/)	&(4d\&)	.
*v	*v	*	*	*
*	*v	*v	*
=63	=63	=63
(8C/	[2.c/ [2.e/	.
4G\	.	.
8A\	.	.
4G\)	.	.
=64	=64	=64
(4c\	8c/] (8e/L]	.
.	8d#/ 8f#/	.
4G\	8e/ 8g/	.
.	[8e/ [8g/ [8cc/J)	.
4C/)	4e/] 4g/] 4cc/]	.
=65	=65	=65
(8AA/	[2.e/ [2.a/ [2.cc/	.
4E\	.	.
8F\	.	.
4E\)	.	.
=66	=66	=66
(4A\	8e/] 8a/] (8cc/L]	.
.	8cc/ 8dd#/	.
4E\	8cc/ 8ee/	.
.	[8cc/ [8ee/ [8aa/J)	.
4AA/)	4cc\] 4ee\] 4aa\]	.
=67	=67	=67
*	*^	*
4DD/	(8bb/	2dd\ 2ff\	.
.	4aa/	.	.
4A\ 4d\ 4f\	.	.	.
.	8gg/)	.	.
4AA-\ 4A-\	8ff/L	4dd\	.
.	8ddd/J	.	.
=68	=68	=68	=68
4GG\ 4G\	(8eee/	2ee\ 2gg\	.
.	4ccc/	.	.
4G\ 4c\ 4e\	.	.	.
.	8gg/)	.	.
4AA\ 4A\	(8ff/L	4g\ 4cc#\	.
.	8ee/J)	.	.
*	*v	*v	*
=69	=69	=69
*>D1	*>D1	*>D1
4AA\ 4A\	4f#/ 4ccn/ 4dd/	mp
4AA-\ 4A-\	4fn/ 4cc/ 4dd/	.
*	*^	*
4GG\ 4G\	(8dd/L	4f\ 4b\	.
.	8ee/J)	.	.
*	*v	*v	*
=70	=70	=70
*>D1	*>D1	*>D1
4C\ 4G\	4e/ 4cc/	.
4r	4e/ (4g/	.
4G\ 4B\	&(4d/&) 4f/)	.
=71:|!	=71:|!	=71:|!
*>D2	*>D2	*>D2
4C\ 4G\	4e/ 4cc/	.
4CC/ 4C/	4cc\ 4ee\ 4gg\ 4ccc\	.
4r	4r	.
=72	=72	=72
*>E	*>E	*>E
*k[f#]	*k[f#]	*k[f#]
*^	*	*
4r	(2GG\	(8g/ 8b/	mf
.	.	4b\) 4dd\	.
4D/ 4G/ 4B/	.	.	.
.	.	8b\ 8dd\	.
*	*	*^	*
4E/ 4G/ 4A#/	4C#\)	8gg/L	4a#\	.
.	.	8ee/J	.	.
*	*	*v	*v	*
=73	=73	=73	=73
4r	2.D\	8b\ 8ee\L	.
.	.	8b\ 8dd\	.
4G/ 4B/	.	8b\ 8dd\	.
.	.	[8a\ [8cc\J	.
4F#/ 4c/	.	8a\] 8cc\L]	.
.	.	8f#\ 8a#\J	.
=74	=74	=74	=74
4r	(2GG\	8g\ (8b\	.
.	.	4b\ 4dd\)	.
4D/ 4G/ 4B/	.	.	.
.	.	8b\ 8dd\	.
*	*	*^	*
4E/ 4G/ 4A#/	4C#\)	(8gg/L	4a#\	.
.	.	8ee/J)	.	.
*	*	*v	*v	*
=75	=75	=75	=75
4r	2.D\	8b\ 8ee\L	.
.	.	8b\ 8dd\	.
4G/ 4B/	.	8b\ 8dd\	.
.	.	[8a\ [8cc\J	.
4F#/ 4c/	.	8a\] 8cc\L]	.
.	.	8d\J	.
*v	*v	*	*
=76	=76	=76
4DD/	8g#/ (8b/	.
.	4a/ 4cc/	.
4D\ 4F#\ 4c\	.	.
.	8b\ 8dd\	.
4D\ 4F#\ 4c\	4cc\ 4ee\)	.
=77	=77	=77
4GG/	8a#\ (8cc#\	.
.	4b\ 4dd\	.
4D\ 4G\ 4B\	.	.
.	8cc#\ 8aa#\	.
4G\ 4B\ 4d\	4dd\ 4bb\)	.
=78	=78	=78
4FF#/	8dd\ 8bb\	.
.	4ff#\ 4bb\ 4ddd\	.
4F#\ 4B\ 4d\	.	.
.	[8ff#\ [8aa#\ [8ddd\	.
4F#\ 4A#\ 4e\	8ff#\] 8aa#\] 8ddd\L]	.
.	8ee\ 8aa#\ 8ccc#\J	.
=79	=79	=79
*^	*	*
(4B/	2BB\ 2F#\	4dd\ (4bb\	.
4d/)	.	4f#/ 4b/)	.
4D\ 4F#\ 4c\	(8a/L	4f#\	.
.	8a#/J)	.	.
=80	=80	=80	=80
4r	(2GG\	8g/ (8b/	.
.	.	4b\ 4dd\)	.
4D/ 4G/ 4B/	.	.	.
.	.	8b\ 8dd\	.
*	*	*^	*
4E/ 4G/ 4A#/	4C#\)	(8gg/L	4a#\	.
.	.	8ee/J)	.	.
*	*	*v	*v	*
=81	=81	=81	=81
4r	2.D\	8b\ 8ee\L	.
.	.	8b\ 8dd\	.
4G/ 4B/	.	8b\ 8dd\	.
.	.	[8a\ [8cc\J	.
4F#/ 4c/	.	8a\] 8cc\L]	.
.	.	8f#\ 8a#\J	.
=82	=82	=82	=82
4r	2.GG\	8g/ 8b/	.
.	.	4g\ 4b\ 4dd\	.
4D/ 4G/ 4B/	.	.	.
.	.	8g\ 8b\ 8dd\	.
4D#/ 4G/ 4B/	.	4g\ 4b\ 4dd#\	.
*v	*v	*	*
=83	=83	=83
(8C/	2.g\ 2.cc\ 2.ee\	.
4E\	.	.
8G\	.	.
4c\)	.	.
=84	=84	=84
*	*^	*
4C/	8ee/ (8gg/	2g\	f
.	4dd/ 4ff#/	.	.
4E\ 4G\ 4c\	.	.	.
.	8cc/ 8ee/)	.	.
4C#/	4ee/	4g\ 4a#\	.
=85	=85	=85	=85
*^	*	*	*
4r	2.D\	(8gg/	2g\ 2b\	.
.	.	4ff#/	.	.
4G/ 4B/	.	.	.	.
.	.	8ee/)	.	.
4G/ 4B/	.	(8ee/L	4g\ 4b\	.
.	.	8dd/J)	.	.
*v	*v	*	*	*
*	*v	*v	*
=86	=86	=86
2D\ 2d\	2f#/ 2cc/ 2dd/	.
4D\ 4d\	4cc\ 4dd\ 4ff#\	.
=87	=87	=87
8BB\ 8B\	4b\ 4dd\ 4gg\	ff
4D\ 4d\	.	.
.	4b\ 4dd\ 4gg\	.
8D\ 8d\	.	.
8G\ 8g\L	4a#\ 4cc#\ 4gg\	.
8E\ 8e\J	.	.
=88	=88	=88
8C#\ (8c#\L	4cc#\ 4ee\ 4gg\	.
8D\ 8d\J	.	.
2E\ 2e\)	4cc#\ 4ee\ 4gg\	.
.	4cc#\ 4ee\ 4gg\	.
=89	=89	=89
8Cn\ (8cn\L	4ccn\ 4ee-\ 4gg\	.
8D\ 8d\J	.	.
2E-\ 2e-\)	4cc\ 4ee-\ 4gg\	.
.	4cc\ 4ee-\ 4gg\	.
=90	=90	=90
8D\ (8d\L	4b\ 4dd\ 4gg\	.
8C\ 8c\J	.	.
4BB\ 4B\)	4b\ 4dd\ 4gg\	.
4D\ 4d\	4b\ 4dd\ 4gg\	.
=91	=91	=91
4GG\ 4G\	4b\ 4dd\ 4gg\	.
4e\	4ee\	.
4c#\	4cc#\	.
=92	=92	=92
4d\	4dd\	.
4A#\	4a#/	.
4B\	4b\	.
=93	=93	=93
4G\	4g/	.
4E\	4e/	.
4C#/	4c#/	.
=94	=94	=94
4D/	4d/	.
4AA#/	4A#/	.
4BB/	4B/	.
=95	=95	=95
4GG/	4G/	.
4r	4r	.
12B\L	(12b/L	.
12B-\	12b-/	.
12A\J	12a/J	.
=96	=96	=96
&(4G\&)	4g/)	.
4r	4r	.
4r	4r	.
=97	=97	=97
2.GG/ 2.BB/ 2.D/	2.G/	.
=98	=98	=98
4GGG/ 4GG/	4g\ 4b\ 4dd\ 4gg\	.
4r	4r	.
4r	4r	.
==	==	==
*-	*-	*-
